X: 1
T: The Piper's Cave
R: march
Z: 2003 John Chambers <jc:trillian.mit.edu>
M: C|
L: 1/8
K: A
E2 "A"\
| "A"E2A2 A3B | c2A2 F2E2 | "E7"E2B2 B3c | dcBA G2E2 \
| "A"E2A2 A3B | c2A2 F2E2 | "E7"E2B2 cBAG | "A"A6 :|
cd "B1"\
| "A"e2c2 c2e2 | "E7"d2B2 B2cd | "A"e2A2 "D"F2A2 | "E7"G2E2 E2cd \
| "A"e2c2 c2e2 | "E7"d2B2 B2cd | "A"e2A2 cBAG | "A"A6 |]
cd "B2"\
| "A"e2c2 c2e2 | "E7"d2B2 B2cd | "A"e2A2 "D"F2A2 | "E7"G2E2 E3F \
| "A"E2A2 A3B | c2A2 F2E2 | "E7"E2B2 cBAG | "A"A6 |]
